X:1
T:Buxtehude - Aria:  La Capricciosa in G Minor.
%%score { ( 1 2 ) | ( 3 4 ) }
L:1/8
Q:1/4=100
M:4/4
K:G
V:1 treble nm="Harpsichord" snm="Hch."
V:2 treble 
V:3 bass 
V:4 bass 
V:1
"^Partita 3"!f! z/ A/B/c/ d/D/E/=F/ E/G/A/B/ c/E/^F/G/ | F/A/B/c/ d/A/B/c/ B/d/e/f/ g/d/c/B/ | %2
 B/d/c/d/ B/g/A/=f/ G/e/=F/d/ E/c/D/B/ | C/A/B,/G/ A,/G/C/F/ B,/G/D/B,/ z2 :: %4
 B2 PB2 c/G/A/B/ c/d/c/B/ | A/A,/B,/C/ D/E/D/C/ B,2 z/ A,/B,/C/ | B, z D/E/=F/G/ z2 G/A/B/c/- | %7
 cB MA2 G4 :| %8
V:2
 z A, B,2 C4- | CB, A,2 x4 | x8 | x8 :: x8 | x8 | G,/A,/B,/C/ z B, C/D/E/^F/ x2 | MA>G- GF x4 :| %8
V:3
 TG,3 G, z2 PG,2 | A, MG,2 F, G,4 | z PD, G,3 MA, G,2 | D,G,,D,D,, z2 G,G,, :: %4
 G,/D/E/F/ G/A/G/=F/ E/D/C/B,/ A,/B,/A,/G,/ | F,/G,/F,/E,/ D,/C,/B,,/A,,/ G,,/D,/E,/F,/ G, z | %6
 x6 z E | F/D/G/B,/ C/A,/D/D,/ G,/(B,,/D,/G,/) G,,2 :| %8
V:4
 x4 z2 ME,2 | D,4 z4 | G,,3 G,, C,4 | x8 :: x8 | x8 | x8 | x8 :| %8

